X:1
T:Green Gravel (Derbyshire)
B:Broadwood, Lucy, 1893, English County Songs, Leadenhall Press, London
Z:J.A. Fuller-Maitland
M:3/4     %Meter
L:1/8     %
K:C
G2 |G3 A G2 |G2 F2 E2 |F2 G2 E2 |D6 |
w:A-round the green gra-vel the grass is so green;
G3 A GG |G2 F2 E2 |D2 C2 D2 | C6 |
w:All the pret-ty fair maids are plain to be seen;
G3 G G2 |G2 F2 E2 |F3 F E2 | (D4 C2) |
w:Wash them in milk,_ and clothe them in silk,_
G3 G G2 |G2 F2 E2 |D2 C2 D2 | C4 |]
w: Write their names down with a gold pen and ink.
